!!!COM: Fanny (Mendelssohn) Hensel
!!!CNT: Deutsch
!!!TXO: Deutsch
!!!OTL: "Auf der Wanderung"
!!!LYR: Ludwig Tieck
!!!OPR:
!!!OPS: Op.
!!!ONM: No.
!!!ENC: Emily Thomas
!!!YOR: Hensel: 16 Songs Fanny Mendelssohn Hensel
!!!YOR: Alfred, 1995
!!!ODT: 1824/
!!NB: Vocal melody and text encoded.
**kern	**silbe
=1	=1
*clefG2	*
*k[f#c#g#d#]	*
*M4/4	*
*MM[Ma2ssig und heiter]	*
{4b	{Oft-
4b	-mals
4b	durch
4b	den
=2	=2
4cc#	gru2-
4a#	-nen
2b	Wald
=3	=3
4g#	ei-
4g#	-ne
4g#	lie-
4g#	-be
=4	=4
4a	Stim-
4f#	-me
2g#}	schallt,}
=5	=5
{4f#	{mei-
4f#	-nen
8f#	Na-
8g#	|
8a#	-men
8b	|
=6	=6
4.cc#	ruft
8dd#	|
4b}	es.}
4r	.
=7	=7
{4a	{Ach!
4a	mich
8a	fa2llt
8f#	|
8f#	so
8d#	|
=8	=8
4cc#	plo2tz-
8b	-lich
8a	|
4f##	dann
4g#	|
=9	=9
4ee	u2-
4ee	-ber-
8dd#	-gros-
8ee	|
8cc#	-se
8a	|
=10	=10
4b#	Freu-
8cc#	-de
8b	|
4a	an;
4g#}	|}
=11	=11
{4f#	{ist
4g#	es
4a	die
4a#	Ge-
=12	=12
4b	-lieb-
4cc#}	-te,}
{4dd#	{die
4ee	Ge-
=13	=13
[2g#	-lieb-
8g#]	|
8a	|
8f#	|
8d#	|
=14	=14
4e}	-te?}
4r	.
2r	.
=15	=15
{4b	{Blu-
4b	-men,
4b	die
4b	am
=16	=16
4cc#	We-
4a#	-ge
2b}	blu2hn,}
=17	=17
{4g#	{seh'
4g#	ich
4g#	ih-
4g#	-ren
=18	=18
4a	Na-
4f#	-men
2g#}	ziehn,}
=19	=19
{4f#	{je-
4f#	-der
8f#	Baum
8g#	|
8a#	rauscht
8b	|
=20	=20
4.cc#	Li-
8dd#	|
4b}	-la;}
4r	.
=21	=21
{4a	{was
4a	habt
8a	ihr
8f#	|
8f#	da-
8d#	|
=22	=22
4cc#	-mit
8b	ge-
8a	|
4f##	-tan?
4g#}	|}
=23	=23
{4ee	{Bringt
4ee	mich
8dd#	auf
8ee	|
8cc#	die
8a	|
=24	=24
4f#	rech-
8cc#	-te
8b	|
4a	Bahn!
4g#}	|}
=25	=25
{4f#	{Kei-
4g#	-ne
4a	Kunst
4a#}	|}
=26	=26
{4b	{kei-
4cc#	-ne
4dd#	Kunst
4ee	ist
=27	=27
[2g#	ne-
8g#]	|
8a	|
8f#	|
8d#	|
=28	=28
4e}	-cken.}
4r	.
2r	.
==	==
*-	*-
